X: 1079
T: Hoşgeldin Elimize
C: Sadettin Kaynak
O: Turkey
F: http://compmusic.upf.edu/node/140
N: mahur--sarki--duyek--hosgeldin_elimize--sadettin_kaynak
N: makam= mahur
N: form= sarki
N: usul= duyek = 8/4
M: 8/4
L: 1/16
K: C ^9/8f   
Q: 1/4=120
%%MIDI tuningsystem comma53
z2 dg gd g2 gf ga b3/2a/ g2  | z2 dg gd g2 gf ga b3/2a/ b2  | 
w:   |   | 
z2 bc' c'b a2 d'4 g2 ab  | ba g2 fg fa ag f2 ef2e  | 
w:   |   | 
f2 g2 a2 fg ge d2 zB cd  | ef ga g2 gg fe dc BA GF  | 
w:   |   | 
G4 z2 g2 g2 a2 gf ef  | gg fe d2 g2 g2 a2 gf ef  | 
w:   |   | 
gg fe d2 g2 =f2 e2 dc BA  | Bc d2 AB c2 BA GF G2 GA  | 
w:   |   | 
AF G2 z2 g2 g2 a2 gf ef  | gg fe d2 g2 g2 a2 gf ef  | 
w:   |   | 
gg fe d2 g2 =f2 e2 dc BA  | Bc d2 AB c2 BA GF G2 GA  | 
w:   |   | 
AF G2 z2 g2 f2 a2 g6 fe de d2 ef e2 fg f2  | \
w:   | 
g2 a2 z2 c'2 b2 a2 gg fe  | 
w:   | 
dc BA G3g gf ef gz2g  | ga g2 z2 g2 f2 g2 a4  | 
w:   |   | 
gf ed d2 ag g=f fe ed dc  | =f4 z2 c2 c2 c2 Bc cB  | 
w:   |   | 
A4 A2 d6 ed ef  | g4 g2 gg fe dc BA GF  | \
w:   |   | 
G4 z2 g2 g2 a2 gf ef  | 
w:   | 
gg fe d2 g2 g2 a2 gf ef  | gg fe d2 g2 =f2 e2 dc BA  | 
w:   |   | 
Bc d2 AB c2 BA GF G2 GA  | AF G2 z2 g2 g2 a2 gf ef  | 
w:   |   | 
gg fe d2 g2 g2 a2 gf ef  | gg fe d2 g2 =f2 e2 dc BA  | 
w:   |   | 
Bc d2 AB c2 BA GF G2 GA  | AF G2 z2 g2 f2 a2 g6 fe de d2 ef e2 fg f2  | 
w:   |   | 
g2 a2 z2 c'2 b2 a2 gg fe  | dc BA G3g gf ef gz2g  | 
w:   |   | 
ga g2 z2 g2 f2 g2 a4  | gf ed d2 ag g=f fe ed dc  | 
w:   |   | 
=f4 z2 c2 c2 c2 Bc cB  | A4 A2 d6 ed ef  | \
w:   |   | 
g4 g2 gg fe dc BA GF  | 
w:   | 
G4 z2 g4 a2 b2 ag  | c'2 ba g2 gf e2 ef g3/2f/ ga  | \
w:   |   | 
b3/2a/ ba g2 g4 a2 b2 ag  | 
w:   | 
c'2 ba g2 gf e2 ef g3/2f/ ga  | b3/2a/ ba a2 g4 a2 a4  | 
w:   |   | 
a4 z2 a4 c'2 b2 a2  | g2 f2 e2 d2 g2 g2 g4  | \
w:   |   | 
g2 f2 e2 e4 f2 g8 g2 gg =fe dc BA GF  | 
w:   | 
G4 z2 g2 g2 a2 gf ef  | gg fe d2 g2 g2 a2 gf ef  | 
w:   |   | 
gg fe d2 g2 =f2 e2 dc BA  | Bc d2 AB c2 BA GF G2 GA  | 
w:   |   | 
AF G2 z2 g2 g2 a2 gf ef  | gg fe d2 g2 g2 a2 gf ef  | 
w:   |   | 
gg fe d2 g2 =f2 e2 dc BA  | Bc d2 AB c2 BA GF G2 GA  | 
w:   |   | 
AF G2 z2 g2 f2 a2 g6 fe de d2 ef e2 fg f2  | \
w:   | 
g2 a2 z2 c'2 b2 a2 gg fe  | 
w:   | 
dc BA G3g gf ef gz2g  | ga g2 z2 g2 f2 g2 a4  | 
w:   |   | 
gf ed d2 ag g=f fe ed dc  | =f4 z2 c2 c2 c2 Bc cB  | 
w:   |   | 
A4 A2 d6 ed ef  | g4 g2 gg fe dc BA GF  | \
w:   |   | 
G4 z2 g4 a2 b2 ag  | 
w:   | 
c'2 ba g2 gf e2 ef g3/2f/ ga  | b3/2a/ ba g2 g4 a2 b2 ag  | 
w:   |   | 
c'2 ba g2 gf e2 ef g3/2f/ ga  | b3/2a/ ba a2 g4 a2 a4  | 
w:   |   | 
a4 z2 a4 c'2 b2 a2  | g2 f2 e2 d2 g2 g2 g4  | \
w:   |   | 
g2 f2 e2 e4 f2 g8 g2 gg =fe dc BA GF  | 
w:   | 
G4 g8 g8 ^fg fg gf g2 ed3  | dB cd e2 Bc cA B2 GA2^F  | 
w:   |   | 
G4 g8 g8 ^f2 g2 fe ed d6 ^cd e2 de f2 ef g4  | \
w:   | 
g^f ga bc' ba d'4 zc' ba  | 
w:   | 
g4 ze dc BA G2 g8 g8 ^f2 g2  | ^fe ed d6 ^cd e2 de  | 
w:   |   | 
^f2 ef g4 gf ga bc' ba  | d'4 zc' ba g4 ze dc  | 
w:   |   | 
BA G2 b6 ag a^f3  | ^f2 z2 a6 fe fd3  | \
w:   |   | 
d2 z2 ze2^f g2 a2 b2 a2  | 
w:   | 
g3/2f/ ef g8 z2 g2  | g2 a2 gf ef gg fe d2 g2  | \
w:   |   | 
g2 a2 gf ef gg fe d2 g2  | 
w:   | 
=f2 e2 dc BA Bc d2 AB c2  | BA GF G2 GA AF G2 z2 g2  | 
w:   |   | 
g2 a2 gf ef gg fe d2 g2  | g2 a2 gf ef gg fe d2 g2  | 
w:   |   | 
=f2 e2 dc BA Bc d2 AB c2  | BA GF G2 GA AF G2 z2 g2  | 
w:   |   | 
f2 a2 g6 fe de d2  | ef e2 fg f2 g2 a2 z2 c'2  | \
w:   |   | 
b2 a2 gg fe dc BA G3g  | 
w:   | 
gf ef gz2g ga g2 z2 g2  | f2 g2 a4 gf ed d2 ag  | 
w:   |   | 
g=f fe ed dc f4 z2 c2  | c2 c2 Bc cB A4 A2 d6 ed ef g4 g2 gg  | 
w:   |   | 
fe dc BA GF G4 z2 g4 a2 b2 ag c'2 ba g2 gf  | 
w:   | 
e2 ef g3/2f/ ga b3/2a/ ba g2 g4 a2 b2 ag c'2 ba g2 gf  | 
w:   | 
e2 ef g3/2f/ ga b3/2a/ ba a2 g4 a2 a4 a4 z2 a4 c'2 b2 a2 g2 f2 e2 d2  | 
w:   | 
g2 g2 g4 g2 f2 e2 e4 f2 g8 g2 gg  | \
w:   | 
=fe dc BA GF G4 g8 g8 ^fg fg  | 
w:   | 
g^f g2 ed3 dB cd e2 Bc  | cA B2 GA2^F G4 g8 g8 ^f2 g2  | 
w:   |   | 
^fe ed d6 ^cd e2 de  | ^f2 ef g4 gf ga bc' ba  | 
w:   |   | 
d'4 zc' ba g4 ze dc  | BA G2 g8 g8 ^f2 g2 fe ed d6 ^cd e2 de f2 ef g4  | 
w:   |   | 
g^f ga bc' ba d'4 zc' ba  | g4 ze dc BA G2 b6 ag a^f3 f2 z2 a6 fe fd3 d2 z2 ze2f  | 
w:   |   | 
g2 a2 b2 a2 g3/2f/ ef g8 |
w:   | 


